packages/bezier-icons/icons/people.svg

<svg width="24" height="24" viewBox="0 0 24 24" fill="none" xmlns="http://www.w3.org/2000/svg">
<path fill-rule="evenodd" clip-rule="evenodd" d="M8.00018 5.00012C8.00018 6.10412 7.10418 7.00012 6.00018 7.00012C4.89518 7.00012 4.00018 6.10412 4.00018 5.00012C4.00018 3.89612 4.89518 3.00012 6.00018 3.00012C7.10418 3.00012 8.00018 3.89612 8.00018 5.00012ZM4.00018 16.0001H5.00018V20.0001C5.00018 20.5524 5.4479 21.0001 6.00018 21.0001C6.55247 21.0001 7.00018 20.5524 7.00018 20.0001V16.0001H8.00018V9.00009C8.00018 8.44781 7.55247 8.00009 7.00018 8.00009H5.00018C4.4479 8.00009 4.00018 8.44781 4.00018 9.00009V16.0001ZM10.0002 16.0001H11.0002V20.0001C11.0002 20.5524 11.4479 21.0001 12.0002 21.0001C12.5525 21.0001 13.0002 20.5524 13.0002 20.0001V16.0001H14.0002V9.00009C14.0002 8.44781 13.5525 8.00009 13.0002 8.00009H11.0002C10.4479 8.00009 10.0002 8.44781 10.0002 9.00009V16.0001ZM17.0002 16.0001H16.0002V9.00009C16.0002 8.44781 16.4479 8.00009 17.0002 8.00009H19.0002C19.5525 8.00009 20.0002 8.44781 20.0002 9.00009V16.0001H19.0002V20.0001C19.0002 20.5524 18.5525 21.0001 18.0002 21.0001C17.4479 21.0001 17.0002 20.5524 17.0002 20.0001V16.0001ZM12.0002 7.00012C13.1042 7.00012 14.0002 6.10412 14.0002 5.00012C14.0002 3.89612 13.1042 3.00012 12.0002 3.00012C10.8952 3.00012 10.0002 3.89612 10.0002 5.00012C10.0002 6.10412 10.8952 7.00012 12.0002 7.00012ZM20.0002 5.00012C20.0002 6.10412 19.1042 7.00012 18.0002 7.00012C16.8952 7.00012 16.0002 6.10412 16.0002 5.00012C16.0002 3.89612 16.8952 3.00012 18.0002 3.00012C19.1042 3.00012 20.0002 3.89612 20.0002 5.00012Z" fill="#313234"/>
</svg>

<svg xmlns="http://www.w3.org/2000/svg" width="24" height="24" fill="none" viewBox="0 0 24 24"><path fill="#313234" fill-rule="evenodd" d="M8 5A2 2 0 1 1 4 5 2 2 0 0 1 8 5M4 16h1v4a1 1 0 1 0 2 0v-4h1V9a1 1 0 0 0-1-1H5a1 1 0 0 0-1 1zm6 0h1v4a1 1 0 1 0 2 0v-4h1V9a1 1 0 0 0-1-1h-2a1 1 0 0 0-1 1zm7 0h-1V9a1 1 0 0 1 1-1h2a1 1 0 0 1 1 1v7h-1v4a1 1 0 1 1-2 0zm-5-9A2 2 0 1 0 12 3 2 2 0 0 0 12 7m8-2A2 2 0 1 1 16 5 2 2 0 0 1 20 5" clip-rule="evenodd"/></svg>
